assets/ic_search.svg

<svg width="40.000000" height="40.000000" viewBox="0 0 40 40" fill="none" xmlns="http://www.w3.org/2000/svg" xmlns:xlink="http://www.w3.org/1999/xlink">
	<desc>
			Created with Pixso.
	</desc>
	<defs/>
	<rect id="back" rx="20.000000" width="40.000000" height="40.000000" fill="#FF3E79" fill-opacity="1.000000"/>
	<path id="icon" d="M23.5007 22.0007L22.7107 22.0007L22.4307 21.7307C23.6306 20.3306 24.2507 18.4207 23.9106 16.3906C23.4407 13.6106 21.1206 11.3906 18.3206 11.0505C14.0906 10.5305 10.5305 14.0906 11.0505 18.3206C11.3906 21.1206 13.6106 23.4407 16.3906 23.9106C18.4207 24.2507 20.3306 23.6306 21.7307 22.4307L22.0007 22.7107L22.0007 23.5007L26.2607 27.7507C26.6707 28.1606 27.3306 28.1606 27.7407 27.7507L27.7507 27.7407C28.1606 27.3306 28.1606 26.6707 27.7507 26.2607L23.5007 22.0007ZM13.0007 17.5007C13.0007 19.9907 15.0107 22.0007 17.5007 22.0007C19.9907 22.0007 22.0007 19.9907 22.0007 17.5007C22.0007 15.0107 19.9907 13.0007 17.5007 13.0007C15.0107 13.0007 13.0007 15.0107 13.0007 17.5007Z" clip-rule="evenodd" fill="#FFFFFF" fill-opacity="1.000000" fill-rule="evenodd"/>
</svg>

<svg width="40" height="40" fill="none" xmlns="http://www.w3.org/2000/svg"><rect rx="20" width="40" height="40" fill="#FF3E79"/><path d="M23.5 22h-.79l-.28-.27a6.5 6.5 0 0 0 1.48-5.34c-.47-2.78-2.79-5-5.59-5.34a6.505 6.505 0 0 0-7.27 7.27c.34 2.8 2.56 5.12 5.34 5.59a6.5 6.5 0 0 0 5.34-1.48l.27.28v.79l4.26 4.25c.41.41 1.07.41 1.48 0l.01-.01c.41-.41.41-1.07 0-1.48L23.5 22ZM13 17.5c0 2.49 2.01 4.5 4.5 4.5s4.5-2.01 4.5-4.5-2.01-4.5-4.5-4.5-4.5 2.01-4.5 4.5Z" clip-rule="evenodd" fill="#FFF" fill-rule="evenodd"/></svg>
